X:1
T:Title
%%score { 1 | ( 2 3 ) }
L:1/8
M:4/4
K:G
V:1 treble nm="Grand Piano"
V:2 bass 
V:3 bass 
V:1
 z4 z2[Q:1/4=100] D2 | [B,D][DB][DB][CA] [B,G]2 [B,D][B,D] | [B,D]BBA [B,G]3 [DF] | %3
 E2 EE [Cc]2 [CF][^CG] |[M:3/4] A6 |[M:1/4] D2 |[M:4/4] [B,D][DB][DB][CA] [B,G]2 [B,D][B,D] | %7
 [CE]2 [Ec]>[Ec] [Ec]3 [EB] | [DA]2 [Fd]>[Fd] [Ad]2 [DF][DA] |[M:3/4] [B,DG]6 |[M:1/4] G2 | %11
[M:4/4] AGFE D3 D | [Ac][GB][A,FA][B,EG] [CFA]3 [DFA] | [DGB]2 [DGB][DGc] [DGd]2 [CDF][B,DG] | %14
[M:3/4] [DFA]6 |[M:1/4][K:bass] [F,D]2 |[M:4/4] [B,D][K:treble][DB][DB][CA] [B,G]2 [B,D][B,D] | %17
 [CE]2 [Ec]>[Ec] [Ec]3 [EB] | [DA]2 [Fd]>[Fd] [Ad]2 [DF][DA] |[M:7/4] [B,DG]6 z2 z2 z4 |] %20
V:2
 z4 z2 D,2 | [G,,G,]2 [G,,D,][G,,D,] [G,,C,]2 [G,,G,][G,,G,] | z D[D,F,D][D,F,C] [G,,G,]3 [B,,G,] | %3
 [C,G,C]2 [C,E,C][C,E,C] [A,,E,]2 [A,,A,][A,,G,] |[M:3/4] [D,F,D]6 |[M:1/4] [D,F,]2 | %6
[M:4/4] [G,,G,]2 [G,,D,][G,,D,] [G,,D,]2 [G,,G,][G,,G,] | [C,G,]2 [C,G,]>[C,G,] [C,G,]3 [C,G,] | %8
 [D,F,]2 [D,A,]>[D,A,] [D,C]2 [D,A,][D,C] |[M:3/4] [G,,G,]6 |[M:1/4] [G,B,D]2 | %11
[M:4/4] [D,D]2 z2 z4 | .F,2 z2 z4 | G,2 G,A, B,2 A,G, |[M:3/4] D,6 |[M:1/4] D,2 | %16
[M:4/4] [G,,G,]2 [G,,D,][G,,D,] [G,,D,]2 [G,,G,][G,,G,] | [C,G,]2 [C,G,]>[C,G,] [C,G,]3 [C,G,] | %18
 [D,F,]2 [D,A,]>[D,A,] [D,C]2 [D,A,][D,C] |[M:7/4] [G,,G,]6 z2 z2 z4 |] %20
V:3
 x8 | x8 | [D,G,]2 z2 z4 | x8 |[M:3/4] x6 |[M:1/4] x2 |[M:4/4] x8 | x8 | x8 |[M:3/4] x6 | %10
[M:1/4] x2 |[M:4/4] CA,[D,A,D][D,G,D] [D,F,]3 [D,F,] | D,-[D,G,]D,D, D,3 D, | x8 |[M:3/4] x6 | %15
[M:1/4] x2 |[M:4/4] x8 | x8 | x8 |[M:7/4] x14 |] %20

